T: Charlie Hunter
M: 6/8
L: 1/8
K: Dmaj
afd dcd | BGF G2 F | EGB efd | cA^G A2 a/g/ |fdA FDF | GBd g2 g | f^ef g=ec | edc d2 :|
